X: 22316
T: La Sansonette
R: reel
M: 4/4
K: Aminor
|:A2 ^GA =GAFA|EGFE DA,A,D|DEFG (3 ABA GA|c2 d2 A2 (3AAA|
A2 ^GA =GAFA|EGFE DA,A,D|DEFG (3 ABA GF|EFGA DA (3AAA:|
|:A2 FA _BFAB|A2 FA _BFAB|E3 A _BFAB|E3 A _BFAB|
FA FA _BFAB|FAFA _BFAB|E_BAG FGEF|DEFA DA (3AAA:|

